X: 1
T: Flowers At Springtime
M: 4/4
L: 1/8
R: hornpipe
K: Dmaj
|:AF | D2 DF AF D2 | GDGB AF D2 | AddB AFDE | FEED EGFE |
D2 DF AF D2 | GDGB AF D2 | AddB AFDF | EDFE D2 :|
|:de |fdBA B2 de | fdBA B3A | d3e f2 ed | feed egfe |
D2 DF AF D2 | GDGB AF D2 | AddB AFDF | EDFE D2 :|
